content/consul/v1.21.x/img/waypoint/status-normal.svg

<svg xmlns="http://www.w3.org/2000/svg" width="14" height="14" viewBox="0 0 14 14">
  <path fill="#13C6CB" fill-rule="evenodd" d="M7 0c3.864 0 7 3.136 7 7s-3.136 7-7 7-7-3.136-7-7 3.136-7 7-7M1.4 7c0 3.087 2.513 5.6 5.6 5.6s5.6-2.513 5.6-5.6S10.087 1.4 7 1.4A5.607 5.607 0 0 0 1.4 7m2.587-.493L5.8 8.313 9.713 4.4l.987.994-4.9 4.9-2.8-2.8z"/>
</svg>

<svg xmlns="http://www.w3.org/2000/svg" width="14" height="14" viewBox="0 0 14 14">
  <path fill="#13C6CB" fill-rule="evenodd" d="M7,0 C10.864,0 14,3.136 14,7 C14,10.864 10.864,14 7,14 C3.136,14 0,10.864 0,7 C0,3.136 3.136,0 7,0 Z M1.4,7 C1.4,10.087 3.913,12.6 7,12.6 C10.087,12.6 12.6,10.087 12.6,7 C12.6,3.913 10.087,1.4 7,1.4 C3.913,1.4 1.4,3.913 1.4,7 Z M3.987,6.507 L5.8,8.313 L9.713,4.4 L10.7,5.394 L5.8,10.294 L3,7.494 L3.987,6.507 Z"/>
</svg>
